FINK
CUT[FREUDVOLL UND LEIDVOLL]
REG[Europa, Mitteleuropa, Deutschland]
KEY[F0938  16 Eb 2/4]
MEL[  1_.-5-5_0-5  -5_.-3-3_0
    -3  -5_-4_-2_--7_  -1__0__
    1_.-6-6_0-6  -6_.-3-3_0
    -3  -3__-4#_-5#_  -6__.0_
    -5__-6_-7_  1_.-5-5_0
    -5  -5_.-4#-4_0-4  -3__0__
    1__.-71  2__.
    -5-5  3__2_.-7  1__.0_
    1__21-71  2__.
    1-6  3__342-7  1__.0_ //] >>
FCT[Liebes - Lied]
